svg/fluentui-system-icons/ic_fluent_book_open_microphone_28_regular.svg

<svg width="28" height="28" viewBox="0 0 28 28" fill="none" xmlns="http://www.w3.org/2000/svg">
<path d="M11.5 4C12.5052 4 13.4038 4.45637 14 5.17321C14.5962 4.45637 15.4948 4 16.5 4H24.25C25.2165 4 26 4.7835 26 5.75V16.5C26 15.2368 25.4145 14.1104 24.5 13.3773V5.75C24.5 5.61193 24.3881 5.5 24.25 5.5H16.5C15.5335 5.5 14.75 6.2835 14.75 7.25V20.75C14.75 21.5295 15.2596 22.1899 15.9639 22.4163C16.1933 22.989 16.5019 23.5214 16.8761 24H16.5C15.4948 24 14.5962 23.5436 14 22.8268C13.4038 23.5436 12.5052 24 11.5 24H3.75C2.7835 24 2 23.2165 2 22.25V5.75C2 4.7835 2.7835 4 3.75 4H11.5ZM13.25 20.75V7.25C13.25 6.2835 12.4665 5.5 11.5 5.5H3.75C3.61193 5.5 3.5 5.61193 3.5 5.75V22.25C3.5 22.3881 3.61193 22.5 3.75 22.5H11.5C12.4665 22.5 13.25 21.7165 13.25 20.75ZM17.6689 22.5C17.2435 21.7646 17 20.9107 17 20C17 19.7239 17.2239 19.5 17.5 19.5C17.7761 19.5 18 19.7239 18 20C18 20.9459 18.3284 21.8152 18.8773 22.5C19.492 23.2668 20.3832 23.8023 21.3997 23.9552C21.4623 23.9647 21.5254 23.9726 21.5889 23.9791C21.5923 23.9795 21.5958 23.9798 21.5993 23.9802C21.7311 23.9933 21.8648 24 22 24C22.1352 24 22.2689 23.9933 22.4007 23.9802C22.4042 23.9798 22.4077 23.9795 22.4111 23.9791C22.4746 23.9726 22.5377 23.9647 22.6003 23.9552C24.2574 23.7059 25.5815 22.4399 25.9174 20.8128C25.9715 20.5504 26 20.2785 26 20C26 19.7239 26.2239 19.5 26.5 19.5C26.7761 19.5 27 19.7239 27 20C27 22.5929 25.0264 24.7248 22.4994 24.9754C22.4998 24.9835 22.5 24.9917 22.5 25V26.5C22.5 26.7761 22.2761 27 22 27C21.7239 27 21.5 26.7761 21.5 26.5V25C21.5 24.9917 21.5002 24.9835 21.5006 24.9754C20.5677 24.8829 19.7101 24.5339 18.9995 24C18.4614 23.5957 18.0075 23.0854 17.6689 22.5ZM22 14C20.6193 14 19.5 15.1193 19.5 16.5V20C19.5 21.3807 20.6193 22.5 22 22.5C23.3807 22.5 24.5 21.3807 24.5 20V16.5C24.5 15.1193 23.3807 14 22 14Z" fill="#212121"/>
</svg>

<svg xmlns="http://www.w3.org/2000/svg" width="28" height="28"><path d="M11.5 4c1.005 0 1.904.456 2.5 1.173A3.243 3.243 0 0 1 16.5 4h7.75c.966 0 1.75.784 1.75 1.75V16.5c0-1.263-.585-2.39-1.5-3.123V5.75a.25.25 0 0 0-.25-.25H16.5a1.75 1.75 0 0 0-1.75 1.75v13.5c0 .78.51 1.44 1.214 1.666.23.573.538 1.105.912 1.584H16.5a3.244 3.244 0 0 1-2.5-1.173A3.244 3.244 0 0 1 11.5 24H3.75A1.75 1.75 0 0 1 2 22.25V5.75C2 4.784 2.784 4 3.75 4h7.75Zm1.75 16.75V7.25A1.75 1.75 0 0 0 11.5 5.5H3.75a.25.25 0 0 0-.25.25v16.5c0 .138.112.25.25.25h7.75a1.75 1.75 0 0 0 1.75-1.75Zm4.419 1.75A4.977 4.977 0 0 1 17 20a.5.5 0 0 1 1 0 3.996 3.996 0 0 0 3.589 3.98h.01a4.05 4.05 0 0 0 .802 0h.01A4.004 4.004 0 0 0 26 20a.5.5 0 0 1 1 0 5 5 0 0 1-4.5 4.975V26.5a.5.5 0 0 1-1 0v-1.525A4.974 4.974 0 0 1 19 24a5.025 5.025 0 0 1-1.331-1.5ZM22 14a2.5 2.5 0 0 0-2.5 2.5V20a2.5 2.5 0 0 0 5 0v-3.5A2.5 2.5 0 0 0 22 14Z"/></svg>
